X: 10841
M: C|
L: 1/8
K: A
[|\
v(.A,>.B,) (.C>.D) (.E>.F) (EC) | (.A,>.C) (E>C) E(A"^>"A>c) |\
v(.A,>.B,) (.C>.D) (.E>.F) (F/E/)D/C/ | B,B/c/ (d/c/B/A/) G(B"^>"B>c) |
(.A,>.B,) (.C>.D) (.E>.F) (EC) | (.A,>.C) (E>C) E(AA c/d/) |\
(.e>.c) (AE) (Fd) (.f>.e) | (.d>.c) (B>A) G(BB |]
uc) |\
(.A>.c)(AE) (.F>.A)FD | (.E>.D) (C>B,) A,"_Segue Reel."(AA>c) "^D.C."|]


